usr/share/icons/biglinux-icons-material/32/actions/mail-meeting-request-reply.svg

<svg version="1.1" viewBox="0 0 32 32" xmlns="http://www.w3.org/2000/svg">
 <defs>
  <style id="current-color-scheme" type="text/css">.ColorScheme-Text {
        color:#dedede;
      }</style>
 </defs>
 <path d="m24 15v8h2v-8h-2zm0 10v2h2v-2h-2z" fill="#fdbc4b"/>
 <path class="ColorScheme-Text" d="m6 5c-2.1263 0-3.8499 1.6437-3.9863 3.7344l-0.013672-0.011719v0.27734 0.9668 12.066 0.9668 0.2793l0.013672-0.011719c0.13738 2.0897 1.8607 3.7324 3.9863 3.7324h15v-1h-15c-1.662 0-3-1.338-3-3v-0.49609l7.5801-5.8809 3.6035 2.7949c0.99892 0.7749 2.6339 0.7749 3.6328 0l3.1836-2.4688v-1.248l-3.9883 3.0938c-0.56803 0.44064-1.4574 0.44255-2.0254 0.001953l-11.986-9.2988v-0.49805c0-1.662 1.338-3 3-3h20c1.662 0 3 1.338 3 3v0.49414l-5.8086 4.5059h1.6094l4.1992-3.2578v3.2578h1v-4.0332-0.9668-0.28125l-0.013672 0.011719c-0.13833-2.0888-1.8613-3.7305-3.9863-3.7305h-20zm-3 5.7422 6.7773 5.2578-6.7773 5.2578v-10.516z" fill="currentColor"/>
</svg>

<svg xmlns="http://www.w3.org/2000/svg" viewBox="0 0 32 32"><path fill="#fdbc4b" d="M24 15v8h2v-8h-2zm0 10v2h2v-2h-2z"/><path fill="currentColor" d="M6 5a3.987 3.987 0 0 0-3.986 3.734L2 8.723V23.279l.014-.012A3.987 3.987 0 0 0 6 27h15v-1H6c-1.662 0-3-1.338-3-3v-.496l7.58-5.881 3.604 2.795c.999.774 2.634.774 3.632 0L21 16.948v-1.247l-3.988 3.094c-.568.44-1.458.442-2.026.001L3 9.498V9c0-1.662 1.338-3 3-3h20c1.662 0 3 1.338 3 3v.494L23.192 14h1.61L29 10.742V14h1V8.718l-.013.012A3.987 3.987 0 0 0 26 5H6zm-3 5.742L9.777 16 3 21.258V10.742z" style="color:#dedede"/></svg>
